resources/svg/orientaton.svg

<svg xmlns="http://www.w3.org/2000/svg" viewBox="0 0 21 20" fill="currentColor"><path d="M2,10.9413917 L2,17.9413917 L14,17.9413917 L14,10.9413917 L2,10.9413917 Z M2,8.94139166 L14,8.94139166 C15.1045695,8.94139166 16,9.83682216 16,10.9413917 L16,17.9413917 C16,19.0459612 15.1045695,19.9413917 14,19.9413917 L2,19.9413917 C0.8954305,19.9413917 1.77635684e-15,19.0459612 1.77635684e-15,17.9413917 L1.77635684e-15,10.9413917 C1.77635684e-15,9.83682216 0.8954305,8.94139166 2,8.94139166 Z M11.0115272,6.94139166 L9.01152718,6.94139166 L9.01152718,2 C9.01152718,0.8954305 9.90695768,1.77635684e-15 11.0115272,1.77635684e-15 L18.0115272,1.77635684e-15 C19.1160967,1.77635684e-15 20.0115272,0.8954305 20.0115272,2 L20.0115272,14 C20.0115272,15.1045695 19.1160967,16 18.0115272,16 L18,16 L18,14 L18.0115272,14 L18.0115272,2 L11.0115272,2 L11.0115272,6.94139166 Z"/></svg>

<svg xmlns="http://www.w3.org/2000/svg" fill="currentColor" viewBox="0 0 21 20"><path d="M2 10.941v7h12v-7H2Zm0-2h12a2 2 0 0 1 2 2v7a2 2 0 0 1-2 2H2a2 2 0 0 1-2-2v-7a2 2 0 0 1 2-2Zm9.012-2h-2V2a2 2 0 0 1 2-2h7a2 2 0 0 1 2 2v12a2 2 0 0 1-2 2H18v-2h.012V2h-7v4.941Z"/></svg>
